client/src/assets/logo.svg

<?xml version="1.0" standalone="no"?>
<!DOCTYPE svg PUBLIC "-//W3C//DTD SVG 20010904//EN"
 "http://www.w3.org/TR/2001/REC-SVG-20010904/DTD/svg10.dtd">
<svg version="1.0" xmlns="http://www.w3.org/2000/svg"
 width="40.000000pt" height="40.000000pt" viewBox="0 0 40.000000 40.000000"
 preserveAspectRatio="xMidYMid meet">
<metadata>
Created by potrace 1.16, written by Peter Selinger 2001-2019
</metadata>
<g transform="translate(0.000000,40.000000) scale(0.006981,-0.006908)"
fill="#000000" stroke="none">
<path d="M2790 4590 c-54 -14 -126 -47 -174 -80 -24 -16 -65 -34 -91 -40 -113
-25 -236 -114 -303 -218 l-34 -55 -64 7 c-58 6 -66 4 -87 -16 -13 -13 -52 -92
-87 -175 l-65 -153 -46 0 c-58 0 -64 -7 -173 -190 -80 -134 -86 -148 -86 -200
0 -30 -25 -532 -55 -1114 -30 -583 -53 -1067 -50 -1076 3 -10 17 -22 31 -28
31 -15 2739 -17 2777 -3 13 5 27 17 31 26 3 9 -5 229 -18 488 -14 260 -39 762
-57 1117 l-32 645 -84 145 c-106 181 -114 190 -170 190 -38 0 -46 4 -62 33
-42 70 -78 110 -137 150 -55 38 -64 48 -79 97 -34 111 -101 198 -199 262 -66
42 -168 78 -225 78 -25 0 -51 10 -85 35 -76 54 -148 77 -251 81 -49 2 -106 -1
-125 -6z m582 -263 c70 -34 130 -92 162 -155 l25 -49 -79 -1 c-209 -3 -387
-156 -419 -360 -6 -35 -8 -68 -6 -75 2 -7 6 -33 9 -59 l6 -48 -191 0 -191 0 7
264 7 264 -23 15 c-14 9 -82 22 -164 32 -167 19 -195 24 -195 35 0 5 22 31 48
58 46 47 106 85 162 103 14 4 196 7 405 6 l380 -2 57 -28z m-1017 -272 c110
-14 206 -25 213 -25 14 0 15 -68 5 -298 l-6 -152 -334 0 c-183 0 -333 4 -333
8 0 7 196 467 206 484 8 12 28 10 249 -17z m1274 -76 c65 -28 104 -61 140
-117 44 -70 58 -142 41 -220 l-13 -62 -299 0 -298 0 -11 28 c-6 15 -11 57 -12
93 -1 181 154 318 343 303 35 -3 85 -14 109 -25z m465 -591 c4 -40 13 -210 21
-378 42 -845 75 -1494 80 -1567 l6 -83 -1307 0 -1306 0 6 93 c4 50 27 495 51
987 25 492 47 923 51 958 l6 62 1193 0 1193 0 6 -72z"/>
<path d="M2419 3340 c-73 -22 -119 -87 -119 -167 0 -40 6 -59 30 -92 17 -23
42 -47 55 -53 l25 -11 0 -287 c0 -162 5 -312 11 -346 33 -180 183 -338 359
-378 87 -20 143 -20 230 0 173 39 322 193 359 372 6 31 11 172 11 345 l1 292
32 20 c80 51 102 153 50 233 -30 46 -90 82 -136 82 -33 0 -94 -24 -120 -48
-29 -26 -57 -87 -57 -123 0 -48 36 -115 76 -140 l35 -21 -3 -322 -3 -321 -26
-55 c-34 -72 -106 -145 -177 -178 -50 -24 -69 -27 -157 -27 -87 0 -107 3 -155
26 -70 33 -146 109 -177 177 -36 77 -43 155 -38 404 2 122 4 240 5 260 0 31 5
40 29 53 63 32 95 127 67 199 -34 88 -120 133 -207 106z"/>
</g>
</svg>

<?xml version="1.0" standalone="no"?>
<!DOCTYPE svg PUBLIC "-//W3C//DTD SVG 1.0//EN" "http://www.w3.org/TR/2001/REC-SVG-20010904/DTD/svg10.dtd">
<svg xmlns="http://www.w3.org/2000/svg" xmlns:xlink="http://www.w3.org/1999/xlink" id="body_1" width="89" height="89">

<g transform="matrix(0.7739131 0 0 0.76724136 0 0)">
	<g transform="matrix(0.020069808 0 -0 -0.020034544 0 115.99999)">
	</g>
    <path transform="matrix(0.020069808 0 -0 -0.020034544 0 115.99999)"  d="M2790 4590C 2736 4576 2664 4543 2616 4510C 2592 4494 2551 4476 2525 4470C 2412 4445 2289 4356 2222 4252L2222 4252L2188 4197L2124 4204C 2066 4210 2058 4208 2037 4188C 2024 4175 1985 4096 1950 4013L1950 4013L1885 3860L1839 3860C 1781 3860 1775 3853 1666 3670C 1586 3536 1580 3522 1580 3470C 1580 3440 1555 2938 1525 2356C 1495 1773 1472 1289 1475 1280C 1478 1270 1492 1258 1506 1252C 1537 1237 4245 1235 4283 1249C 4296 1254 4310 1266 4314 1275C 4317 1284 4309 1504 4296 1763C 4282 2023 4257 2525 4239 2880L4239 2880L4207 3525L4123 3670C 4017 3851 4009 3860 3953 3860C 3915 3860 3907 3864 3891 3893C 3849 3963 3813 4003 3754 4043C 3699 4081 3690 4091 3675 4140C 3641 4251 3574 4338 3476 4402C 3410 4444 3308 4480 3251 4480C 3226 4480 3200 4490 3166 4515C 3090 4569 3018 4592 2915 4596C 2866 4598 2809 4595 2790 4590zM3372 4327C 3442 4293 3502 4235 3534 4172L3534 4172L3559 4123L3480 4122C 3271 4119 3093 3966 3061 3762C 3055 3727 3053 3694 3055 3687C 3057 3680 3061 3654 3064 3628L3064 3628L3070 3580L2879 3580L2688 3580L2695 3844L2702 4108L2679 4123C 2665 4132 2597 4145 2515 4155C 2348 4174 2320 4179 2320 4190C 2320 4195 2342 4221 2368 4248C 2414 4295 2474 4333 2530 4351C 2544 4355 2726 4358 2935 4357L2935 4357L3315 4355L3372 4327zM2355 4055C 2465 4041 2561 4030 2568 4030C 2582 4030 2583 3962 2573 3732L2573 3732L2567 3580L2233 3580C 2050 3580 1900 3584 1900 3588C 1900 3595 2096 4055 2106 4072C 2114 4084 2134 4082 2355 4055zM3629 3979C 3694 3951 3733 3918 3769 3862C 3813 3792 3827 3720 3810 3642L3810 3642L3797 3580L3498 3580L3200 3580L3189 3608C 3183 3623 3178 3665 3177 3701C 3176 3882 3331 4019 3520 4004C 3555 4001 3605 3990 3629 3979zM3994 3665C 4019 3623 4040 3587 4040 3585C 4040 3582 4013 3580 3979 3580C 3929 3580 3919 3583 3924 3595C 3927 3603 3932 3639 3936 3675C 3940 3711 3944 3740 3946 3740C 3947 3740 3969 3706 3994 3665zM1770 3590C 1770 3585 1765 3580 1759 3580C 1754 3580 1752 3585 1755 3590C 1758 3596 1763 3600 1766 3600C 1768 3600 1770 3596 1770 3590zM4094 3388C 4098 3348 4107 3178 4115 3010C 4157 2165 4190 1516 4195 1443L4195 1443L4201 1360L2894 1360L1588 1360L1594 1453C 1598 1503 1621 1948 1645 2440C 1670 2932 1692 3363 1696 3398L1696 3398L1702 3460L2895 3460L4088 3460L4094 3388z" stroke="none" fill="#000000" fill-rule="nonzero" />
	<g transform="matrix(0.020069808 0 -0 -0.020034544 0 115.99999)">
	</g>
    <path transform="matrix(0.020069808 0 -0 -0.020034544 0 115.99999)"  d="M2419 3340C 2346 3318 2300 3253 2300 3173C 2300 3133 2306 3114 2330 3081C 2347 3058 2372 3034 2385 3028L2385 3028L2410 3017L2410 2730C 2410 2568 2415 2418 2421 2384C 2454 2204 2604 2046 2780 2006C 2867 1986 2923 1986 3010 2006C 3183 2045 3332 2199 3369 2378C 3375 2409 3380 2550 3380 2723L3380 2723L3381 3015L3413 3035C 3493 3086 3515 3188 3463 3268C 3433 3314 3373 3350 3327 3350C 3294 3350 3233 3326 3207 3302C 3178 3276 3150 3215 3150 3179C 3150 3131 3186 3064 3226 3039L3226 3039L3261 3018L3258 2696L3255 2375L3229 2320C 3195 2248 3123 2175 3052 2142C 3002 2118 2983 2115 2895 2115C 2808 2115 2788 2118 2740 2141C 2670 2174 2594 2250 2563 2318C 2527 2395 2520 2473 2525 2722C 2527 2844 2529 2962 2530 2982C 2530 3013 2535 3022 2559 3035C 2622 3067 2654 3162 2626 3234C 2592 3322 2506 3367 2419 3340zM2508 3218C 2515 3211 2520 3195 2520 3182C 2520 3163 2516 3159 2503 3166C 2493 3170 2476 3173 2465 3173C 2454 3173 2437 3170 2428 3166C 2415 3160 2410 3162 2410 3176C 2410 3219 2478 3248 2508 3218zM3362 3213C 3372 3204 3380 3189 3380 3178C 3380 3157 3379 3157 3346 3170C 3329 3176 3311 3176 3295 3170C 3273 3162 3270 3163 3270 3183C 3270 3229 3325 3247 3362 3213z" stroke="none" fill="#000000" fill-rule="nonzero" />
</g>
</svg>
